assets/images/script/n-1-beg.svg

<svg fill="none" height="237" viewBox="0 0 301 237" width="301" xmlns="http://www.w3.org/2000/svg"><path d="m93.8332 144.425c13.7228-.624 25.8858-10.71 36.5278-18.337 13.237-9.486 27.918-19.71 37.258-33.3863 2.866-4.1967 1.757-9.6017 2.703-2.1917 2.635 20.64 15.407 41.333 25.497 59.102 8.471 14.92 27.659 45.211 30.692 62.559 2.661 15.218-14.581 20.682-26.592 21.624-29.496 2.314-61.104-5.981-89.712-12.054-20.639-4.381-41.1841-9.319-61.0742-16.437-14.0031-5.012-30.5356-10.825-40.7649-22.282-16.66075-18.66 6.6829-56.852 19.5694-67.527 33.6436-27.8698 72.6267-51.5359 110.6057-72.9093 27.733-15.6071 57.401-28.5691 88.251-36.67384 7.879-2.06995 19.024-5.276214 27.031-1.75333 7.215 3.17497 8.347 12.73137 9.351 19.43277 4.059 27.1096 8.281 41.5117 18.359 67.2195 3.679 9.3822 28.589 52.2822 9.059 57.4212-14.945 3.933-42.853-7.552-41.568-25.934 1.12-16.036 11.474-20.036 31.372-24.583" stroke="#000" stroke-linecap="round" stroke-width="5"/></svg>

<svg width="301" height="237" viewBox="0 0 301 237" fill="none" xmlns="http://www.w3.org/2000/svg">
<path d="M93.8332 144.425C107.556 143.801 119.719 133.715 130.361 126.088C143.598 116.602 158.279 106.378 167.619 92.7017C170.485 88.505 169.376 83.1 170.322 90.51C172.957 111.15 185.729 131.843 195.819 149.612C204.29 164.532 223.478 194.823 226.511 212.171C229.172 227.389 211.93 232.853 199.919 233.795C170.423 236.109 138.815 227.814 110.207 221.741C89.568 217.36 69.0229 212.422 49.1328 205.304C35.1297 200.292 18.5972 194.479 8.3679 183.022C-8.29285 164.362 15.0508 126.17 27.9373 115.495C61.5809 87.6252 100.564 63.9591 138.543 42.5857C166.276 26.9786 195.944 14.0166 226.794 5.91186C234.673 3.84191 245.818 0.635646 253.825 4.15853C261.04 7.3335 262.172 16.8899 263.176 23.5913C267.235 50.7009 271.457 65.103 281.535 90.8108C285.214 100.193 310.124 143.093 290.594 148.232C275.649 152.165 247.741 140.68 249.026 122.298C250.146 106.262 260.5 102.262 280.398 97.715" stroke="black" stroke-width="5" stroke-linecap="round"/>
</svg>
